X:1
T:Bessers ist nicht
T:Melchior Franck
T:Source : Tricinia nova---Nürnberg---A.Wagenmann---1611. Editor : André Vierendeels (29/03/17).
T:Notes : Original clefs : G2, G2, F3 Editorial accidentals above the staff Text Middle German
T:Bessers ist nicht
T:©
T:©
T:©
T:©
C:Melchior Franck
Z:©
%%score [ 1 2 3 ]
L:1/8
Q:1/4=101
M:2/2
K:C
V:1 treble nm="Soprano 1" snm="S 1"
V:2 treble nm="Soprano 2" snm="S 2"
V:3 treble-8 nm="Tenor" snm="T"
V:1
"^1)" d2 dd c2 B2 | A3 A B2 g2 | g3 g f2 e2 | d3 d e2 e2 |"^-natural" f2 g4 a2- | a2 f2 e4 | %6
w: Bes- sers ist nicht auff|die- ser Erd, welchs|köst- li- cher ge-|sche- hert werd, als|rech- te lieb|_ in eh-|
w: Desz Men- schen Seel ist|tau- send- mal, viel|köst- li- cher gantz|ü- ber- al, als|der sterb- li-|* che lei-|
[M:2/4] d4 |[M:2/2] d2 dd c2 B2 | A3 A B2 g2 | g3 g f2 e2 | d3 d e2 e2 | f2 g4 a2- | a2 f2 e4 | %13
w: ren,|die lieb ver- eint zu-|sam- men hald, will,|sinn, hertz, gmüt, kraff-|ti- ger gstalt, als|ob zwey nur|_ eins we-|
w: be,|noch hat die lieb mit|ih- rer macht, sie|un- ter ihr süsz|hoch ge- bracht, da|sie gar gerh|_ thut blei-|
[M:2/4] d4 |:[M:2/2] z2 d2 g3 f | e2 e2 d2 d2 | c2 e2 d3 c | B2 B2 A2 A2 | G2 B4 c2- | c2 B4 A2- | %20
w: ren:|Drumb was man|sagt, ich alls ver-|nein, recht lieb zu|ha- ben ist kein|pein, wenn lieb|_ die lieb|
w: ben:|Drumb was man|sagt ist schimpf und|scherz, recht lieb zu|ha- ben ist kein|schmertz, wenn zwey|_ lieb z'sam-|
 A2 G2 ^F2 G2- | G2 ^F2 !fermata!G4 :| %22
w: _ thut gwäh- *|* * ren.|
w: * men trei- *|* * ben.|
V:2
"^2)""^1)" B2 BA G2 G2 | G2 ^F2 G2 B2 | e3 d c2 c2 | c2 B2 c2 c2- | c2 d2 e4 | f2 d2 ^c4 | %6
w: Bes- sers ist nicht auff|die- ser Erd, welchs|köst- li- cher ge-|sche- hert werd als|_ rech- te|lieb in eh-|
w: All an- der freud und|kurtz- weil gut, eh|eins da- mit er-|frischt den muth ver-|* geht, thut|bald ver- schwin-|
[M:2/4] d4 |[M:2/2] B2 BA G2 G2 | G2 ^F2 G2 B2 | e3 d c2 c2 | c2 B2 c2 c2- | c2 d2 e4 | f2 d2 ^c4 | %13
w: ren,|die lieb ver- eint zu|sam- men hald, will,|sinn, hertz, gmüt, kraff-|ti- ger gstalt, als|_ ob zwey|nur eins we-|
w: den,|die freud so die lieb|mit sich tregt, viel|jahr und tag zu|blri- ben pflegt, lest|_ trau- ren|weit da- hin-|
[M:2/4] d4 |:[M:2/2] z2 B2 B2 B2 | c2 c2 c2 B2 | c2 G2 G2 ^F2 | G2 G2 G2 ^F2 | G2 d4 e2- | %19
w: ren:|Drumb was man|sagt, ich alls ver-|nein, recht lieb zu|ha- ben ist kein|pein, wenn lieb|
w: ten:|Drumb wa man|sagt ist alls ein|spot, recht lieb zu|ha- ben bringt kein|noth, wenn lieb|
 e2 d4 c2- | c2 B2 A2 G2 | A4 !fermata!B4 :| %22
w: _ die lieb|_ thut gwäh- *|* ren.|
w: _ auch lieb|_ thut fin- *|* den.|
V:3
"^3)""^1)" G2 GF E3 D | ^C2 D2 G2 G2 | c3 B A3 G | ^F2 G2 c2 A2- | A2 B2 c4 | d2 D2 A4 | %6
w: Bes- sers ist nicht auff|die- ser Erd, welchs|köst- li- cher ge-|sche- hert werd als|_ rech- te|lieb in eh-|
[M:2/4] D4 |[M:2/2] G2 GF E3 D | ^C2 D2 G2 G2 | c3 B A3 G | ^F2 G2 c2 A2- | A2 B2 c4 | d2 D2 A4 | %13
w: ren,|die lieb ver- eint zu|sam- men bald, will,|sinn, hertz, gmüt, kraff-|ti- ger gstalt als|_ ob zwey|nur eins we-|
[M:2/4] D4 |:[M:2/2] z2 G2 E3 D | C2 E2 F2 G2 | C2 c2 B3 A | G2 B2 c2 d2 | G2 G2 G4 | G4 E4 | %20
w: ren:|Drumb was man|sagt, ich alls ver-|nein, recht lieb zu|ha- ben ist kein|pein, wenn lieb|die lieb|
 B,4 D4- | D4 !fermata!G4 :| %22
w: thut gwäh-|* ren.|

